build/redact/AlignCenterOutline.svg

<svg xmlns="http://www.w3.org/2000/svg" fill="none" viewBox="0 0 24 24" focusable="false"><path d="M0 0H24V24H0z"/><path fill="#74767B" fill-rule="evenodd" d="M4.65 5.5C4.29101 5.5 4 5.79102 4 6.15C4 6.50899 4.29101 6.8 4.65 6.8L19.35 6.8C19.709 6.8 20 6.50899 20 6.15C20 5.79102 19.709 5.5 19.35 5.5L4.65 5.5ZM4.65 13.3C4.29101 13.3 4 13.591 4 13.95C4 14.309 4.29101 14.6 4.65 14.6L19.35 14.6C19.709 14.6 20 14.309 20 13.95C20 13.591 19.709 13.3 19.35 13.3L4.65 13.3ZM7.49609 10.05C7.49609 9.69104 7.78711 9.40002 8.14609 9.40002L15.8539 9.40002C16.2129 9.40002 16.5039 9.69104 16.5039 10.05C16.5039 10.409 16.2129 10.7 15.8539 10.7L8.14609 10.7C7.78711 10.7 7.49609 10.409 7.49609 10.05ZM8.14609 17.2C7.78711 17.2 7.49609 17.491 7.49609 17.85C7.49609 18.209 7.78711 18.5 8.14609 18.5L15.8539 18.5C16.2129 18.5 16.5039 18.209 16.5039 17.85C16.5039 17.491 16.2129 17.2 15.8539 17.2L8.14609 17.2Z"/></svg>

<svg xmlns="http://www.w3.org/2000/svg" fill="none" viewBox="0 0 24 24" focusable="false"><path fill="#74767B" fill-rule="evenodd" d="M4.64 5.5a.644.644 0 0 0 0 1.29h14.71c.35 0 .65-.29.65-.64 0-.36-.3-.65-.65-.65zm0 7.8c-.35 0-.64.29-.64.65 0 .35.29.65.64.65h14.71c.35 0 .65-.3.65-.65 0-.36-.3-.65-.65-.65zm2.85-3.25c0-.36.29-.65.65-.65h7.71c.36 0 .65.29.65.65 0 .35-.29.65-.65.65H8.14c-.36 0-.65-.3-.65-.65m.65 7.15c-.36 0-.65.29-.65.65 0 .35.29.65.65.65h7.71c.36 0 .65-.3.65-.65 0-.36-.29-.65-.65-.65z"/></svg>
